X: 58
T: Jenny's Gone to Linton
R: reel
Z: 2012 John Chambers <jc:trillian.mit.edu>
B: NEFR #58
N: This is a 16-bar reel.
N: The Scottish pipe tune High Road to Linton has four parts; this is the first two.
M: C|
L: 1/8
K: A
|: "A"Ac ce a2 ae | "D"fe "E7"fg "A"a2 a2 | "A"Ac ce a2ae | "D"fa "A"ec "E7"B2 "A"A2 :|
|: "A"ce ea "D"fd df | "A"ec ce "E7"d/c/B B2 | "A"ce ea "D"fd df | "A"ea ec "E7"B2 "A"A2 :|
